X: 8
T: Dornoch Links
R: march
M: 4/4
L: 1/8
K: Gmaj
ge|dG GA B2AG|d2G2G2ge|dG GA B2AG|B2A2A2Bc|
dG GA B2 AG|B2d2 g3e|d2de dB (3ABc|B2G2G2:|
Bd|g2 ga ge dg|e2 ed e2 ge|d2 de dB GA|B2A2A2Bd|
g2 ga ge dg|e2 ed e2 ge|d2 de dB (3ABc|B2G2G2:|
